X:144102
T:Scotland the Brave (Simplified)
H: 
B:
C:Traditional (Unknown, 1911)
O:Kevin Fraser
Z:Kevin Fraser
Q:1/4=90
K:HP
M:4/4
L:1/8
R:March
U: R = ///
U: r = //
U: V = !accent!
V:M gstem=up stem=down name="Melody"
V:0 gstem=up stem=down name="Simplified Melody" sname="simplified"
V:H gstem=up stem=down name="Harmony"
V:C gstem=up stem=down name="C-Harmony"
V:S gstem=up stem=down dyn=up stafflines=1 clef=perc middle=G name="Snare" sname="Snare"" sname="Snare"
V:B gstem=up stem=down clef=none dyn=up name="Bass"
V:T gstem=up stem=down clef=none dyn=up name="Tenor"
V:BB gstem=up stem=down name="Brass Bass" sname="ABCD-C" transpose=-1  octave=-1 clef=bass
V:BC gstem=up stem=down name="Brass Chord" sname="ABCD-D" transpose=-1
V:BD gstem=up stem=down name="Brass Chord 2" sname="ABCD-B" transpose=-1
I:MIDI=program 110
%%MIDI gracedivider 4
V:M gstem=up stem=down name="Melody"
%%MIDI program 109 #bagpipes
%%MIDI vol 100
%%score M BC BD BB 
% %score 0 M 
% %score 0 
T: Scotland the Brave Low Hand Version (Scotland) 
[V:M] e  |{g}A2  {g}A>B {g}c{e}A {g}ce    | {ag}a2 {g}a2 {g}ae {g}c{e}A | {Gdc}d2 {g}f>d {g}ce {g}c{e}A | {g}B2 {g}e2 {A}e>f  {g}e/d/{g}c/B/ | $
w:  e  |{g}A2  {g}A> B {g}c {e}A {g}c e    | {ag}a2 {g}a2 {g}a e {g}c {e}A | {Gdc}d2 {g}f> d {g}c e {g}c {e}A | {g}B2 {g}e2 {A}e> f  {g}e/ d/ {g}c/ B/ | $
[V:M]    |{g}A2  {g}A>B {g}c{e}A {g}ce    | {ag}a2 {g}a2 {g}ae {g}c{e}A | {Gdc}d2 {g}f>d {g}ce {g}c{e}A | {g}B2 {g}A>B  {G}A2   {g}ce || $
w: |{g}A2  {g}A> B {g}c {e}A {g}c e    | {ag}a2 {g}a2 {g}a e {g}c {e}A | {Gdc}d2 {g}f> d {g}c e {g}c {e}A | {g}B2 {g}A> B  {G}A2   {g}c e || $
[V:M]    |{ag}a2 {g}a2     {g}ae    {g}c{e}A | {ag}a2 {g}a2 {g}ae {g}ce    | {Gdc}d2 {g}f>d {g}c2 {g}e>c   |  {g}B2 {g}e2 {A}e>f  {g}e/d/{g}c/B/ | $
w:    |{ag}a2 {g}a2     {g}a e    {g}c {e}A | {ag}a2 {g}a2 {g}a e {g}c e    | {Gdc}d2 {g}f> d {g}c2 {g}e> c   |  {g}B2 {g}e2 {A}e> f  {g}e/ d/ {g}c/ B/ | $
[V:M]    |{g}A2  {g}A>B {g}c{e}A {g}ce    | {ag}a2 {g}a2 {g}ae {g}c{e}A | {Gdc}d2 {g}f>d {g}ce {g}c{e}A | {g}B2 {g}A>B  {G}A3    || $
w: |{g}A2  {g}A> B {g}c {e}A {g}c e    | {ag}a2 {g}a2 {g}a e {g}c {e}A | {Gdc}d2 {g}f> d {g}c e {g}c {e}A | {g}B2 {g}A> B  {G}A3    || $


